!!!!SEGMENT: pl-wn--mus-iii-69-834-3_zelenski-wladyslaw--piesni-z-muzyka-op-26-wieje-wietrzyk-po-polu.krn
!!!cenid: 18xx:3704
!!!COM: Żeleński, Władysław
!!!COM-rismID: pe41024455
!!!CDT: 1837/07/06-1921/01/23
!!!CNT: Polish
!!!OTL: Pieśni z muzyką op. 26/Wieje wietrzyk po polu
!!!PDT:
!!!AGN:
!!!SMS-siglum: PL-Wn
!!!SMS-shelfmark: Mus.III.69.834/3
!!!SMS-shelfwork: W
!!!SMS-variant:
!!!SMS-altvar:
!!!NIFC-rismSourceID:
!!!NIFC-islandoraID:
!!!URL-pdf-islandora:
!!!URL-scan: https://polona.pl/item/z-teki-jozefa-koscielskiego-piesni-z-muzyka-wladyslawa-zelenskiego-op-26-no-3,NzA2MzkyNzM/0 @EN{Scan on Polona} @PL{Skany w portalu Polona}
!!!ONB-nifc:
!!!AIN: 1 piano 1 vox
!!!key: b
**kern	**kern	**dynam	**kern	**text	**dynam
*part2	*part2	*part2	*part1	*part1	*part1
*staff3	*staff2	*	*staff1	*staff1	*
*I"Fortepian.	*I"Fortepian.	*	*I"Śpiew.	*	*
*	*I'pf	*	*I'V	*	*
*Ipiano	*Ipiano	*	*Ivox	*	*
*ICklav	*ICklav	*	*ICvox	*	*
*clefF4	*clefG2	*	*clefG2	*	*
*k[f#c#]	*k[f#c#]	*	*k[f#c#]	*	*
*b:	*b:	*	*b:	*	*
*M2/4	*M2/4	*	*M2/4	*	*
=1	=1	=1	=1	=1	=1
*^	*^	*	*	*	*
*xywh-#3:332,898,2397,500	*xywh-#3:332,898,2397,500	*xywh-#3:332,898,2397,500	*xywh-#3:332,898,2397,500	*	*xywh-#3:393,439,2302,486	*	*
*	*	*	*Xtuplet	*	*	*	*
!LO:TX:a:t=P:problem=w źródle główki ósemki i półnuty nałożone na siebie	!	!LO:TX:b:i:t=molto leggiero	!	!	!LO:TX:a:t=Quasi Allegretto.	!	!
8BB/	2BB\	8ree	24re	.	2r	.	.
.	.	.	24e#X\LL	.	.	.	.
.	.	.	24f#\JJ	.	.	.	.
4F#/	.	4.dd^>/	24b\LL	.	.	.	.
.	.	.	24e#\	.	.	.	.
.	.	.	24f#\JJ	.	.	.	.
.	.	.	24e#\LL	.	.	.	.
.	.	.	24f#\	.	.	.	.
.	.	.	24e#\JJ	.	.	.	.
8F#/	.	.	24f#\LL	.	.	.	.
.	.	.	24e#\	.	.	.	.
.	.	.	24f#\JJ	.	.	.	.
=2	=2	=2	=2	=2	=2	=2	=2
!LO:TX:a:t=P:problem=w źródle główki ósemki i półnuty nałożone na siebie	!	!	!	!	!	!	!
8BB/	2BB\	8ree	24re	.	2r	.	.
.	.	.	24d#X\LL	.	.	.	.
.	.	.	24e\JJ	.	.	.	.
4G/	.	(>4cc#/^>	24g\LL	.	.	.	.
.	.	.	24d#\	.	.	.	.
.	.	.	24e\JJ	.	.	.	.
.	.	.	24d#\LL	.	.	.	.
.	.	.	24e\	.	.	.	.
.	.	.	24d#\JJ	.	.	.	.
8G/	.	8b/)	24g\LL	.	.	.	.
.	.	.	24d#\	.	.	.	.
.	.	.	24e\JJ	.	.	.	.
=3	=3	=3	=3	=3	=3	=3	=3
!LO:TX:a:t=P:problem=w źródle główki ósemki i półnuty nałożone na siebie	!	!	!	!	!	!	!
8BB/	2BB\	8ree	24re	.	2r	.	.
.	.	.	24B#X\LL	.	.	.	.
.	.	.	24c#\JJ	.	.	.	.
!	!	!	!	!LO:HP:a	!	!	!
4F#/	.	(>4a/	24e\LL	>	.	.	.
.	.	.	24B#\	.	.	.	.
.	.	.	24c#\JJ	.	.	.	.
.	.	.	24B#\LL	.	.	.	.
.	.	.	24c#\	.	.	.	.
.	.	.	24B#\JJ	.	.	.	.
8F#/	.	8g/)	24e\LL	]	.	.	.
.	.	.	24B#\	.	.	.	.
.	.	.	24c#\JJ	.	.	.	.
!!LO:LB:g=original
=4	=4	=4	=4	=4	=4	=4	=4
*xywh-#3:282,1646,2433,508	*xywh-#3:282,1646,2433,508	*xywh-#3:282,1646,2433,508	*xywh-#3:282,1646,2433,508	*	*xywh-#3:293,1406,2405,292	*	*
!LO:TX:a:t=P:problem=w źródle główki ósemki i półnuty nałożone na siebie	!	!	!	!	!	!	!
8BB/	2BB\	8ree	24re	.	2r	.	.
.	.	.	24A#X\LL	.	.	.	.
.	.	.	24B\JJ	.	.	.	.
4.F#/	.	4.f#^>/	24d\LL	.	.	.	.
.	.	.	24A#\	.	.	.	.
.	.	.	24B\JJ	>	.	.	.
.	.	.	24A#\LL	.	.	.	.
.	.	.	24B\	.	.	.	.
.	.	.	24A#\JJ	.	.	.	.
.	.	.	24B\LL	.	.	.	.
.	.	.	24A#\	.	.	.	.
.	.	.	24B\JJ	.	.	.	.
*	*	*v	*v	*	*	*	*
=5	=5	=5	=5	=5	=5	=5
*ped	*	*	*	*	*	*
!LO:N:vis=2	!	!	!	!LO:TX:a:i:t=semplice	!	!LO:DY:a
4.BB/	2BB\	8r	pp	8f#/	Wie-	p
.	.	4f# 4d 4B/	.	8f#/	-je	.
.	.	.	.	8dd\	wie-	.
8F#/	.	8f# 8d 8B/	.	16dd\	-trzyk	.
*Xped	*	*	*	*	*	*
.	.	.	.	16dd\	po	.
=6	=6	=6	=6	=6	=6	=6
*	*	*^	*	*	*	*
*xywh-#3:282,1646,2433,508	*xywh-#3:282,1646,2433,508	*xywh-#3:282,1646,2433,508	*xywh-#3:282,1646,2433,508	*	*	*	*
!LO:TX:a:t=P:problem=w źródle główki ósemki i półnuty nałożone na siebie	!	!	!	!	!	!	!
8BB/	2BB\	8ree	24re	.	(>8dd\	po-	.
.	.	.	24d#X\LL	.	.	.	.
.	.	.	24e\JJ	.	.	.	.
!	!	!	!	!LO:HP:a	!	!	!
4G/	.	(>4cc#/	24g\LL	>	4cc#\)	.	.
.	.	.	24d#\	.	.	.	.
.	.	.	24e\JJ	.	.	.	.
.	.	.	24d#\LL	.	.	.	.
.	.	.	24e\	.	.	.	.
.	.	.	24d#\JJ	.	.	.	.
8G/	.	8b/)	24g\LL	]	8b\	-lu,	.
.	.	.	24d#\	.	.	.	.
.	.	.	24e\JJ	.	.	.	.
*	*	*v	*v	*	*	*	*
=7	=7	=7	=7	=7	=7	=7
*ped	*	*	*	*	*	*
!LO:TX:a:t=P:problem=w źródle główki ósemki i półnuty nałożone na siebie	!	!	!	!	!	!
8BB/	2BB\	8r	.	8a/	Zwie-	.
4E/	.	4g 4e 4B/	.	8g/	-wa	.
.	.	.	.	8b\	ziarn-	.
8E/	.	8g 8e 8B/	.	16a/	-ka	.
*Xped	*	*	*	*	*	*
.	.	.	.	16g/	ką-	.
!!LO:LB:g=original
=8	=8	=8	=8	=8	=8	=8
*	*	*^	*	*	*	*
*xywh-#3:298,2382,2416,533	*xywh-#3:298,2382,2416,533	*xywh-#3:298,2382,2416,533	*xywh-#3:298,2382,2416,533	*	*xywh-#3:306,2146,2419,294	*	*
!LO:TX:a:t=P:problem=w źródle główki ósemki i półnuty nałożone na siebie	!	!	!	!	!	!	!
8BB/	2BB\	8ree	24re	.	8g/	-ko-	.
.	.	.	24A#X\LL	.	.	.	.
.	.	.	24B\JJ	.	.	.	.
4F#/	.	4.f#^>/	24d\LL	.	4.f#/	-lu,	.
.	.	.	24A#\	.	.	.	.
.	.	.	24B\JJ	.	.	.	.
.	.	.	24A#\LL	.	.	.	.
.	.	.	24B\	.	.	.	.
.	.	.	24A#\JJ	.	.	.	.
8F#/	.	.	24B\LL	.	.	.	.
.	.	.	24A#\	.	.	.	.
.	.	.	24B\JJ	.	.	.	.
*	*	*v	*v	*	*	*	*
=9	=9	=9	=9	=9	=9	=9
!LO:TX:a:t=P:problem=w źródle główki ósemki i półnuty nałożone na siebie	!	!	!	!	!	!LO:HP:a:t=cresc. un poco:dur=3q
8AA/	2AA\	8r	.	8f#/	Nie-	<
!	!	!	!LO:HP:t=cresc. un poco:dur=5e	!	!	!
4F#/	.	4f# 4c#/	<	8f#/	-sie	.
.	.	.	.	8f#/	ziar-	.
8F#/	.	8f# 8c#/	.	16g/	-no	.
.	.	.	.	16f#/	zdra-	.
=10	=10	=10	=10	=10	=10	=10
*	*	*^	*	*	*	*
*xywh-#3:298,2382,2416,533	*xywh-#3:298,2382,2416,533	*xywh-#3:298,2382,2416,533	*xywh-#3:298,2382,2416,533	*	*	*	*
*ped	*	*	*	*	*	*	*
!LO:TX:a:t=P:problem=w źródle główki ósemki i półnuty nałożone na siebie	!	!	!	!	!	!	!
8GG/	2GG\	8r	8ryy	.	4b\	-dli-	.
4G 4D/	.	(>4b/	16f#\LL	.	.	.	.
.	.	.	16B\JJ	.	.	.	.
.	.	.	8c#\L)	.	4b\	-we	.
*Xped	*	*	*	*	*	*	*
8G 8D/	.	8b/	8d\J	.	.	.	.
*	*	*v	*v	*	*	*	*
=11	=11	=11	=11	=11	=11	=11
*ped	*	*	*	*	*	*
!LO:TX:a:t=P:problem=w źródle główki ósemki i półnuty nałożone na siebie	!	!	!	!	!	!
8EE/	2EE\	8r	.	8b\	W gó-	.
!	!	!	!	!	!	!LO:HP:a
4G 4E/	.	(<4b 4g 4e 4B/	.	8b\	-ry	<
.	.	.	.	8b\	la-	.
8G 8E 8D'</	.	8b 8g 8e 8B'/)	.	16cc#\	-sy	.
*Xped	*	*	*	*	*	*
.	.	.	.	16dd\	na	.
!!LO:LB:g=original
=12	=12	=12	=12	=12	=12	=12
*	*	*^	*	*	*	*
*xywh-#3:314,3153,2397,508	*xywh-#3:314,3153,2397,508	*xywh-#3:314,3153,2397,508	*xywh-#3:314,3153,2397,508	*	*xywh-#3:320,2905,2394,289	*	*
*ped	*	*	*	*	*	*	*
!LO:TX:a:t=P:problem=w źródle główki ósemki i półnuty nałożone na siebie	!	!	!	!	!	!	!
8C#/	2C#\	8r	8ryy	<	4ee\	ni-	.
4B 4G/	.	(>4ee/	16b\LL	.	.	.	.
*Xped	*	*	*	*	*	*	*
.	.	.	16e\JJ	.	.	.	.
.	.	.	8f#\L)	.	4ee\	-wę,	[
8B 8G/	.	8ee/	8bJ 8g\	[	.	.	.
*	*	*v	*v	*	*	*	*
=13	=13	=13	=13	=13	=13	=13
*ped	*	*	*	*	*	*
!LO:N:vis=2	!	!	!	!	!	!
8FF#/L	2FF#\	8r	.	8r	.	.
!	!	!	!	!LO:TX:a:i:t=espress.	!	!
(<8A#X/	.	(<24f#/LL	.	8ee\L	Nie-	.
.	.	24e/	.	.	.	.
*Xped	*	*	*	*	*	*
.	.	24f#/JJ	.	.	.	.
8B/J)	.	8g#X/L)	.	8dd\J	.	.
8ryy	.	8a#XJ 8e 8c#'/	.	8cc#\	-se	.
=14	=14	=14	=14	=14	=14	=14
*	*	*^	*	*	*	*
*xywh-#3:314,3153,2397,508	*xywh-#3:314,3153,2397,508	*xywh-#3:314,3153,2397,508	*xywh-#3:314,3153,2397,508	*	*	*	*
*ped	*	*	*	*	*	*	*
!LO:TX:a:t=P:problem=w źródle główki ósemki i półnuty nałożone na siebie	!	!	!	!	!	!	!
8GG/	2GG\	8r	8ryy	.	4b\	ziar-	.
4G 4D/	.	(>4b/	16d\LL	.	.	.	.
.	.	.	16B\JJ	.	.	.	.
*Xped	*	*	*	*	*	*	*
.	.	.	8c#\L)	.	4b\	-no	.
8G 8D/	.	8b/	8d\J	.	.	.	.
=15	=15	=15	=15	=15	=15	=15	=15
!	!	!	!	!	!	!	!LO:DY:a
*ped	*	*	*	*	*	*	*
!LO:TX:a:t=P:problem=w źródle główki ósemki i półnuty nałożone na siebie	!	!	!	!	!	!	!
8EE/	2EE\	8r	8ryy	.	4ccn\	ziar-	p
4G 4E/	.	(>4ccn/	24e\LL	.	.	.	.
.	.	.	24g\	.	.	.	.
.	.	.	24e\JJ	.	.	.	.
.	.	.	8cn\L)	.	8g/	-no	.
*Xped	*	*	*	*	*	*	*
8G 8E/	.	8g/	8c\J	.	8a/	zdra-	.
=16	=16	=16	=16	=16	=16	=16	=16
*ped	*	*	*	*	*	*	*
!LO:TX:a:t=P:problem=w źródle główki ósemki i półnuty nałożone na siebie	!	!	!	!	!	!	!
8DD/	2DD\	8r	8ryy	.	4b\	-dli-	.
4D/	.	(>4g/	16B\LL	.	.	.	.
*Xped	*	*	*	*	*	*	*
.	.	.	16G\JJ	.	.	.	.
.	.	.	8A\L)	.	4b\	-we	.
8D/	.	8g/	8B\J	.	.	.	.
!!LO:PB:g=original
=17	=17	=17	=17	=17	=17	=17	=17
!	!	!	!	!	!LO:TX:a:i:t=espress.	!	!
*xywh-#4:448,569,2424,532	*xywh-#4:448,569,2424,532	*xywh-#4:448,569,2424,532	*xywh-#4:448,569,2424,532	*	*xywh-#4:464,379,2377,255	*	*
*ped	*	*	*	*	*	*	*
!LO:TX:a:t=P:problem=w źródle główki ósemki i półnuty nałożone na siebie	!	!	!	!	!	!	!
8CC#/	2CC#\	8r	8ryy	.	8b/L	W gó-	.
4G 4E 4C#/	.	4b/	24e\LL	.	8g/	.	.
.	.	.	(>24g\	.	.	.	.
.	.	.	24e\JJ	.	.	.	.
.	.	.	8B'>\L)	.	8e/J	.	.
8G 8E 8C#/	.	8b 8e/	8B\J	.	8g/	-ry	.
*Xped	*	*	*	*	*	*	*
=18	=18	=18	=18	=18	=18	=18	=18
!	!	!	!	!	!	!	!LO:HP:a
*ped	*	*	*	*	*	*	*
!LO:TX:a:t=P:problem=w źródle główki ósemki i półnuty nałożone na siebie	!	!	!	!	!	!	!
8FF#/	2FF#\	8r	8ryy	.	4f#/	la-	<
4F#/	.	(>4b/	24d\LL	.	.	.	.
.	.	.	24f#\	.	.	.	.
.	.	.	24d\JJ	.	.	.	.
.	.	.	8B\L)	.	8f#/	-sy	.
8F#/	.	8b 8d/	8B\J	<	8f#/	na	.
*Xped	*	*	*	*	*	*	*
*	*	*v	*v	*	*	*	*
=19	=19	=19	=19	=19	=19	=19
*ped	*	*	*	*	*	*
!LO:N:vis=2	!	!	!	!	!	!
8FF#/L	2FF#\	8r	.	2dd\	ni-	[[
(<8A#X/	.	(<24f#/LL	[	.	.	.
.	.	24e/	.	.	.	.
.	.	24f#/JJ	.	.	.	.
*Xped	*	*	*	*	*	*
8B/J)	.	8g#X/L)	>	.	.	.
8ryy	.	8a#XJ 8e 8c#/	]]	.	.	.
=20	=20	=20	=20	=20	=20	=20
*	*	*^	*	*	*	*
*xywh-#4:448,569,2424,532	*xywh-#4:448,569,2424,532	*xywh-#4:448,569,2424,532	*xywh-#4:448,569,2424,532	*	*	*	*
!LO:TX:a:t=P:problem=w źródle główki ósemki i półnuty nałożone na siebie	!	!	!	!	!	!	!
8BB/	2BB\	8ryy	24r	pp	4b\	-wę	.
.	.	.	24e#X\LL	.	.	.	.
.	.	.	24f#\JJ	.	.	.	.
4F#/	.	4.dd^>/	24b\LL	.	.	.	.
.	.	.	24e#\	.	.	.	.
.	.	.	24f#\JJ	.	.	.	.
.	.	.	24e#\LL	.	4r	.	.
.	.	.	24f#\	.	.	.	.
.	.	.	24e#\JJ	.	.	.	.
8F#/	.	.	24f#\LL	.	.	.	.
.	.	.	24e#\	.	.	.	.
.	.	.	24f#\JJ	.	.	.	.
!!LO:LB:g=original
=21	=21	=21	=21	=21	=21	=21	=21
*xywh-#4:458,1245,2386,447	*xywh-#4:458,1245,2386,447	*xywh-#4:458,1245,2386,447	*xywh-#4:458,1245,2386,447	*	*xywh-#4:482,1071,2358,195	*	*
!LO:TX:a:t=P:problem=w źródle główki ósemki i półnuty nałożone na siebie	!	!	!	!	!	!	!
8BB/	2BB\	8ree	24re	.	2r	.	.
.	.	.	24d#X\LL	.	.	.	.
.	.	.	24e\JJ	.	.	.	.
!	!	!	!	!LO:HP:a	!	!	!
4G/	.	(>4cc#/	24g\LL	>	.	.	.
.	.	.	24d#\	.	.	.	.
.	.	.	24e\JJ	.	.	.	.
.	.	.	24d#\LL	.	.	.	.
.	.	.	24e\	.	.	.	.
.	.	.	24d#\JJ	.	.	.	.
8G/	.	8b/)	24g\LL	]	.	.	.
.	.	.	24d#\	.	.	.	.
.	.	.	24e\JJ	.	.	.	.
=22	=22	=22	=22	=22	=22	=22	=22
!LO:TX:a:t=P:problem=w źródle główki ósemki i półnuty nałożone na siebie	!	!	!	!	!	!	!
8BB/	2BB\	8ree	24re	.	2r	.	.
!	!	!	!	!LO:HP:t=cresc. un poco:dur=8s	!	!	!
.	.	.	24B#X\LL	<	.	.	.
.	.	.	24c#\JJ	.	.	.	.
4F#/	.	4a/	24e\LL	.	.	.	.
.	.	.	24B#\	.	.	.	.
.	.	.	24c#\JJ	.	.	.	.
.	.	.	24B#\LL	.	.	.	.
.	.	.	24c#\	.	.	.	.
.	.	.	24B#\JJ	.	.	.	.
8F#/	.	8g/	24e\LL	.	.	.	.
.	.	.	24B#\	.	.	.	.
.	.	.	24c#\JJ	.	.	.	.
=23	=23	=23	=23	=23	=23	=23	=23
!LO:TX:a:t=P:problem=w źródle główki ósemki i półnuty nałożone na siebie	!	!	!	!	!	!	!
8BB/	2BB\	8ree	24re	.	2r	.	.
.	.	.	24A#X\LL	.	.	.	.
.	.	.	24B\JJ	.	.	.	.
4F#/	.	4.f#>/	24d\LL	.	.	.	.
.	.	.	24A#\	>	.	.	.
.	.	.	24B\JJ	.	.	.	.
.	.	.	24A#\LL	.	.	.	.
.	.	.	24B\	.	.	.	.
.	.	.	24A#\JJ	.	.	.	.
8ryy	.	.	24B\LL	]	.	.	.
.	.	.	24A#\	.	.	.	.
.	.	.	24B\JJ	.	.	.	.
*	*	*v	*v	*	*	*	*
!!LO:LB:g=original
=24	=24	=24	=24	=24	=24	=24
!	!	!	!	!LO:TX:a:i:t=con affetto	!	!
*xywh-#4:459,1898,2407,469	*xywh-#4:459,1898,2407,469	*xywh-#4:459,1898,2407,469	*	*xywh-#4:478,1706,2353,244	*	*
*ped	*	*	*	*	*	*
!LO:TX:a:t=P:problem=w źródle główki ósemki i półnuty nałożone na siebie	!	!	!	!	!	!
8BB/	2BB\	8r	pp	8f#/	Dziew-	.
(<4F#/	.	(<4f# 4d 4B/	.	8f#/	-czę	.
.	.	.	.	8dd\	zam-	.
8F#'</)	.	8f# 8d 8B'/)	.	16dd\	-knij	.
.	.	.	.	16dd\	o-	.
=25	=25	=25	=25	=25	=25	=25
*	*	*^	*	*	*	*
*xywh-#4:459,1898,2407,469	*xywh-#4:459,1898,2407,469	*xywh-#4:459,1898,2407,469	*xywh-#4:459,1898,2407,469	*	*	*	*
!LO:TX:a:t=P:problem=w źródle główki ósemki i półnuty nałożone na siebie	!	!	!	!	!	!	!
8BB/	2BB\	8ree	24re	.	(>8dd\	-kien-	.
.	.	.	24d#X\LL	.	.	.	.
.	.	.	24e\JJ	.	.	.	.
!	!	!	!	!LO:HP:a	!	!	!
4G/	.	(>4cc#/	24g\LL	>	4cc#\)	.	.
.	.	.	24d#\	.	.	.	.
.	.	.	24e\JJ	.	.	.	.
.	.	.	24d#\LL	.	.	.	.
.	.	.	24e\	.	.	.	.
.	.	.	24d#\JJ	.	.	.	.
8G/	.	8b/)	24g\LL	]	8b\	-ko	.
.	.	.	24d#\	.	.	.	.
.	.	.	24e\JJ	.	.	.	.
*	*	*v	*v	*	*	*	*
=26	=26	=26	=26	=26	=26	=26
*ped	*	*	*	*	*	*
!LO:TX:a:t=P:problem=w źródle główki ósemki i półnuty nałożone na siebie	!	!	!	!	!	!
8BB/	2BB\	8r	.	8a/	W ser-	.
(<4E/	.	(<4g 4e 4B/	.	8g/	-cu	.
.	.	.	.	8b\	ro-	.
*Xped	*	*	*	*	*	*
\8E'</)	.	8g 8e 8B'/)	.	16a/	-la	.
.	.	.	.	16g/	jest	.
!!LO:LB:g=original
=27	=27	=27	=27	=27	=27	=27
*	*	*^	*	*	*	*
*xywh-#4:456,2543,2407,469	*xywh-#4:456,2543,2407,469	*xywh-#4:456,2543,2407,469	*xywh-#4:456,2543,2407,469	*	*xywh-#4:477,2347,2377,255	*	*
!LO:TX:a:t=P:problem=w źródle główki ósemki i półnuty nałożone na siebie	!	!	!	!	!	!	!
8BB/	2BB\	8ree	24re	.	8g/	na	.
.	.	.	24A#X\LL	.	.	.	.
.	.	.	24B\JJ	.	.	.	.
4F#/	.	4.f#/	24d\LL	.	4.f#/	dnie	.
.	.	.	24A#\	.	.	.	.
.	.	.	24B\JJ	.	.	.	.
.	.	.	24A#\LL	.	.	.	.
.	.	.	24B\	.	.	.	.
.	.	.	24A#\JJ	.	.	.	.
8F#/	.	.	24B\LL	.	.	.	.
.	.	.	24A#\	.	.	.	.
.	.	.	24B\JJ	.	.	.	.
*	*	*v	*v	*	*	*	*
=28	=28	=28	=28	=28	=28	=28
!	!	!	!	!	!	!LO:HP:a
*ped	*	*	*	*	*	*
!LO:TX:a:t=P:problem=w źródle główki ósemki i półnuty nałożone na siebie	!	!	!	!	!	!
8AA/	2AA\	8r	.	8f#/	A	<
4F#/	.	4f# 4c#/	.	8f#/	ką-	.
.	.	.	.	8f#/	-ko-	.
8F#/	.	8f# 8c#/	.	16g/	-lu	.
*Xped	*	*	*	*	*	*
.	.	.	.	16f#/	zia-	.
=29	=29	=29	=29	=29	=29	=29
*	*	*^	*	*	*	*
*xywh-#4:456,2543,2407,469	*xywh-#4:456,2543,2407,469	*xywh-#4:456,2543,2407,469	*xywh-#4:456,2543,2407,469	*	*	*	*
*ped	*	*	*	*	*	*	*
!LO:TX:a:t=P:problem=w źródle główki ósemki i półnuty nałożone na siebie	!	!	!	!	!	!	!
8GG/	2GG\	8r	8ryy	.	4b\	-ren-	.
!	!	!	!LO:N:vis=8	!	!	!	!
4G 4D/	.	(4b/	16f#\LL	.	.	.	.
!	!	!	!LO:N:vis=8	!	!	!	!
.	.	.	16B\JJ	.	.	.	.
*Xped	*	*	*	*	*	*	*
.	.	.	8c#\L)	.	4b\	-ko	.
8G 8D/	.	8b/	8d\J	.	.	.	.
*	*	*v	*v	*	*	*	*
!!LO:LB:g=original
=30	=30	=30	=30	=30	=30	=30
!	!	!	!	!	!	!LO:DY:a
*xywh-#4:458,3197,2399,494	*xywh-#4:458,3197,2399,494	*xywh-#4:458,3197,2399,494	*	*xywh-#4:488,3002,2367,247	*	*
*ped	*	*	*	*	*	*
!LO:TX:a:t=P:problem=w źródle główki ósemki i półnuty nałożone na siebie	!	!	!	!	!	!
8EE/	2EE\	8r	.	8b\	Wszę-	<
4G 4E\	.	(<4b 4g 4e 4B/	.	8b\	-dzie	.
.	.	.	.	8b\	ro-	.
*Xped	*	*	*	*	*	*
8G 8E 8D'\	.	8b 8g 8e 8B'/)	.	16cc#\	-śnie	.
.	.	.	.	16dd\	gdzie	.
=31	=31	=31	=31	=31	=31	=31
*	*	*^	*	*	*	*
*xywh-#4:458,3197,2399,494	*xywh-#4:458,3197,2399,494	*xywh-#4:458,3197,2399,494	*xywh-#4:458,3197,2399,494	*	*	*	*
*ped	*	*	*	*	*	*	*
!LO:TX:a:t=P:problem=w źródle główki ósemki i półnuty nałożone na siebie	!	!	!	!	!	!	!
8C#/	2C#\	8r	8ryy	.	4ee\	pa-	.
4B 4G/	.	(>4ee/	16b\LL	.	.	.	.
.	.	.	16e\JJ	.	.	.	.
*Xped	*	*	*	*	*	*	*
.	.	.	8f#\L)	.	4ee\	-dnie	[
8B 8G/	.	8ee 8b/	8g\J	.	.	.	.
*	*	*v	*v	*	*	*	*
=32	=32	=32	=32	=32	=32	=32
*ped	*	*	*	*	*	*
!LO:N:vis=2	!	!	!	!	!	!
8FF#/L	2FF#\	8r	.	8r	.	.
!	!	!	!	!LO:TX:a:i:t=molto espress.	!	!
(<8A#X/	.	(<24f#/LL	.	8ee\L	A	.
.	.	24e/	.	.	.	.
.	.	24f#/JJ	.	.	.	.
*Xped	*	*	*	*	*	*
8B/J)	.	8g#X/L)	.	8dd#X\J	.	.
8ryy	.	8a#XJ 8f# 8c#'/	.	8a#X/	ką-	.
!!LO:PB:g=original
=33	=33	=33	=33	=33	=33	=33
*	*	*^	*	*	*	*
*xywh-#5:309,647,2402,519	*xywh-#5:309,647,2402,519	*xywh-#5:309,647,2402,519	*xywh-#5:309,647,2402,519	*	*xywh-#5:342,422,2349,247	*	*
*ped	*	*	*	*	*	*	*
!LO:TX:a:t=P:problem=w źródle główki ósemki i półnuty nałożone na siebie	!	!	!	!	!	!	!
8GG#X/	2GG#\	8r	8ryy	.	4b\	-ko-	.
4G#X 4D#X/	.	(>4b/	16d#X\LL	.	.	.	.
.	.	.	16B\JJ	.	.	.	.
.	.	.	8c#\L)	.	4b\	-lu	.
8G# 8D#/	.	8b/	8d#\J	.	.	.	.
=34	=34	=34	=34	=34	=34	=34	=34
!LO:TX:a:t=P:problem=w źródle główki ósemki i półnuty nałożone na siebie	!	!	!	!	!	!	!
8EE/	2EE\	8r	8ryy	.	8r	.	.
!	!	!LO:TX:b:i:t=dolce	!	!	!	!	!
4G#X 4E/	.	4cc#/	24e\LL	.	8cc#\L	zia-	.
.	.	.	24g#X\	.	.	.	.
.	.	.	24e\JJ	.	.	.	.
.	.	.	8c#\L	.	8b\	.	.
*Xped	*	*	*	*	*	*	*
8G# 8E/	.	8g#X/	8c#\J	.	8g#X\J	.	.
=35	=35	=35	=35	=35	=35	=35	=35
*ped	*	*	*	*	*	*	*
!LO:TX:a:t=P:problem=w źródle główki ósemki i półnuty nałożone na siebie	!	!	!	!	!	!	!
8DD#X/	2DD#\	8r	8ryy	.	4f#/	-ren-	.
4F# 4D#X/	.	4f#/	16c#\LL	.	.	.	.
.	.	.	16G#X\JJ	.	.	.	.
.	.	.	8A#X\L	.	4f#/	-ko	.
8F# 8D#/	.	8f#/	8B\J	.	.	.	.
!!LO:LB:g=original
=36	=36	=36	=36	=36	=36	=36	=36
*xywh-#5:310,1314,2399,474	*xywh-#5:310,1314,2399,474	*xywh-#5:310,1314,2399,474	*xywh-#5:310,1314,2399,474	*	*xywh-#5:332,1081,2377,263	*	*
!LO:TX:a:t=P:problem=w źródle główki ósemki i półnuty nałożone na siebie	!	!	!	!	!	!	!
8C#/	2C#\	8r	8ryy	.	4g#X/	Wszę-	.
4B 4G#X/	.	(>4g#X/	24e\LL	.	.	.	.
*Xped	*	*	*	*	*	*	*
.	.	.	24d#X\	.	.	.	.
.	.	.	24e\JJ	.	.	.	.
!	!	!	!	!	!	!	!LO:DY:a
.	.	.	8c#\L)	.	8a#X/L	-dzie	<
8B 8G#/	.	8g#/	8d#\J	<	8b/J	.	.
=37	=37	=37	=37	=37	=37	=37	=37
*ped	*	*	*	*	*	*	*
!LO:TX:a:t=P:problem=w źródle główki ósemki i półnuty nałożone na siebie	!	!	!	!	!	!	!
8C#/	2C#\	8r	8ryy	.	4cc#\	ro-	.
4B 4G#X/	.	4g#X/	24e\LL	.	.	.	.
.	.	.	24d#X\	.	.	.	.
.	.	.	24e\JJ	.	.	.	.
*Xped	*	*	*	*	*	*	*
.	.	.	8B#X\L	.	8dd#X\	-śnie	[
8B 8G#/	.	8g#/	8c#\J	.	8ee\	gdzie	.
=38	=38	=38	=38	=38	=38	=38	=38
!	!	!	!	!	!	!	!LO:DY:a:rj
*ped	*	*	*	*	*	*	*
!LO:TX:a:t=P:problem=w źródle główki ósemki i półnuty nałożone na siebie	!	!	!	!	!	!	!
8FF#/	2FF#\	8r	8ryy	[	(>[>2gg#X\	pa-	f
4A#X/	.	[>4.g#X/	(>24e\LL	.	.	.	.
.	.	.	24d#X\	.	.	.	.
.	.	.	24e\JJ	.	.	.	.
*Xped	*	*	*	*	*	*	*
.	.	.	8c#\L)	.	.	.	.
8A#/	.	.	8d#\J	.	.	.	.
!!LO:LB:g=original
=39	=39	=39	=39	=39	=39	=39	=39
*xywh-#5:299,1934,2388,527	*xywh-#5:299,1934,2388,527	*xywh-#5:299,1934,2388,527	*xywh-#5:299,1934,2388,527	*	*xywh-#5:327,1734,2374,272	*	*
*ped	*	*	*	*	*	*	*
!LO:N:vis=2	!	!	!	!	!	!	!
8FF#/	2FF#\	8g#/]	8e\L	.	4gg#\]	.	.
!	!	!LO:TX:b:i:t=espress.	!	!	!	!	!
4A#X/	.	(>4ee^>/	8f#\	.	.	.	.
*Xped	*	*	*	*	*	*	*
.	.	.	8g#X\	.	4ff#\)	.	.
8e/	.	8cc#/)	8a#X\J	.	.	.	.
=40	=40	=40	=40	=40	=40	=40	=40
!LO:TX:a:t=P:problem=w źródle główki ósemki i półnuty nałożone na siebie	!	!	!	!	!LO:N:vis=2	!	!
8BB/	2BB\	8ree	24re	.	4b\	-dnie	.
.	.	.	24c##X\LL	.	.	.	.
.	.	.	24d#X\JJ	.	.	.	.
4A/	.	(>4ccn^>/	24f#\LL	.	.	.	.
.	.	.	24c##\	.	.	.	.
.	.	.	24d#\JJ	.	.	.	.
.	.	.	24c##\LL	.	4r	.	.
.	.	.	24d#\	.	.	.	.
.	.	.	24c##\JJ	.	.	.	.
8A/	.	8b/)	24f#\LL	.	.	.	.
.	.	.	24c##\	.	.	.	.
.	.	.	24d#\JJ	.	.	.	.
=41	=41	=41	=41	=41	=41	=41	=41
!LO:TX:a:t=P:problem=w źródle główki ósemki i półnuty nałożone na siebie	!	!	!	!	!	!	!
8BB/	2BB\	8ree	24re	.	2r	.	.
.	.	.	24d#X\LL	.	.	.	.
.	.	.	24e\JJ	.	.	.	.
4G/	.	(>4cc#X^>/	24g\LL	.	.	.	.
.	.	.	24d#\	.	.	.	.
.	.	.	24e\JJ	.	.	.	.
.	.	.	24d#\LL	.	.	.	.
.	.	.	24e\	.	.	.	.
.	.	.	24d#\JJ	.	.	.	.
8G/	.	8b/)	24g\LL	.	.	.	.
.	.	.	24d#\	.	.	.	.
.	.	.	24e\JJ	.	.	.	.
!!LO:LB:g=original
=42	=42	=42	=42	=42	=42	=42	=42
*xywh-#5:303,2623,2388,430	*xywh-#5:303,2623,2388,430	*xywh-#5:303,2623,2388,430	*xywh-#5:303,2623,2388,430	*	*xywh-#5:328,2428,2349,197	*	*
!LO:TX:a:t=P:problem=w źródle główki ósemki i półnuty nałożone na siebie	!	!	!	!	!	!	!
8BB/	2BB\	8ree	24re	.	2r	.	.
.	.	.	24B#X\LL	.	.	.	.
.	.	.	24c#\JJ	.	.	.	.
4F#/	.	(>4a/	24e\LL	.	.	.	.
.	.	.	24B#\	.	.	.	.
.	.	.	24c#\JJ	<	.	.	.
.	.	.	24B#\LL	.	.	.	.
.	.	.	24c#\	.	.	.	.
.	.	.	24B#\JJ	.	.	.	.
8F#/	.	8g/)	24e\LL	.	.	.	.
.	.	.	24B#\	.	.	.	.
.	.	.	24c#\JJ	.	.	.	.
=43	=43	=43	=43	=43	=43	=43	=43
!LO:TX:a:t=P:problem=w źródle główki ósemki i półnuty nałożone na siebie	!	!	!	!	!	!	!
8BB/	2BB\	8ree	24re	.	2r	.	.
.	.	.	24A#X\LL	.	.	.	.
.	.	.	24B\JJ	.	.	.	.
4F#/	.	(>4f#/	24dn\LL	.	.	.	.
.	.	.	24A#\	.	.	.	.
.	.	.	24B\JJ	.	.	.	.
.	.	.	24A#\LL	.	.	.	.
.	.	.	24B\	.	.	.	.
.	.	.	24A#\JJ	.	.	.	.
8G/	.	8e#X/)	24d\LL	.	.	.	.
.	.	.	24A#\	.	.	.	.
.	.	.	24B\JJ	.	.	.	.
!!LO:LB:g=original
=44	=44	=44	=44	=44	=44	=44	=44
*xywh-#5:290,3229,2397,536	*xywh-#5:290,3229,2397,536	*xywh-#5:290,3229,2397,536	*xywh-#5:290,3229,2397,536	*	*xywh-#5:334,3070,2341,222	*	*
!LO:TX:a:t=P:problem=w źródle główki ósemki i półnuty nałożone na siebie	!	!	!	!	!	!	!
8BB/	2BB\	8ree	24re	pp	2r	.	.
.	.	.	24A#X\LL	.	.	.	.
.	.	.	24B\JJ	.	.	.	.
!	!	!	!	!LO:HP:a	!	!	!
4F#/	.	(>4f#/	24d\LL	<	.	.	.
.	.	.	24A#\	.	.	.	.
.	.	.	24B\JJ	.	.	.	.
.	.	.	24A#\LL	.	.	.	.
.	.	.	24B\	.	.	.	.
.	.	.	24A#\JJ	.	.	.	.
!	!	!LO:N:vis=4	!	!	!	!	!
8E#X/	.	8g/)	24d\LL	[	.	.	.
.	.	.	24A#\	.	.	.	.
.	.	.	24B\JJ	.	.	.	.
=45	=45	=45	=45	=45	=45	=45	=45
!LO:TX:a:t=P:problem=w źródle główki ósemki i półnuty nałożone na siebie	!	!	!	!	!	!	!
8BB/	[2BB\	8ree	24re	.	2r	.	.
.	.	.	24A#X\LL	.	.	.	.
.	.	.	24B\JJ	.	.	.	.
!LO:TX:b:i:t=morendo	!	!	!	!	!	!	!
[>4.F#/	.	[>4.f# [>4.d/	24d\LL	.	.	.	.
.	.	.	24A#\	.	.	.	.
.	.	.	24B\JJ	.	.	.	.
.	.	.	24A#\LL	.	.	.	.
.	.	.	24B\	.	.	.	.
.	.	.	24A#\JJ	.	.	.	.
.	.	.	24B\LL	.	.	.	.
.	.	.	24A#\	.	.	.	.
.	.	.	24B\JJ	.	.	.	.
*v	*v	*	*	*	*	*	*
*	*v	*v	*	*	*	*
=46	=46	=46	=46	=46	=46
*ped	*	*	*	*	*
8F#] 8BB/]	2f#] 2d] 2B;>/	.	2r	.	.
4.BBB;</	.	.	.	.	.
*Xped	*	*	*	*	*
.	.	.	.	.	.
==	==	==	==	==	==
*-	*-	*-	*-	*-	*-
!!!system-decoration: s1{(s2,s3)}
!!!RDF**dynam: < = "cresc.", 'fontstyle="italic"
!!!RDF**kern: > = above
!!!RDF**kern: < = below
!!!RDF**dynam: > = "dim.", 'fontstyle="italic"
!!!ENC: Filip Voros
!!!END: 2022-03-19
!!!EED: Antoni Szymański
!!!EEV: 2022-03-21
!!!YEC: Copyright 2022 Narodowy Instytut Fryderyka Chopina (https://polishscores.org)
!!!YEM: Licence CC BY 4.0 (https://creativecommons.org/licenses/by/4.0)
!!!IIIF: https://polona.pl/iiif/item/NzA2MzkyNzM/manifest.json
!!!ENC-iiif: Jolanta Bujas-Poniatowska
!!!END-iiif: 2022-09-01
